.local/share/icons/Gruvbox-Plus-Dark/actions/16/media-playlist-normal.svg

<svg width="16" height="16" version="1.1" xmlns="http://www.w3.org/2000/svg">
  <defs>
    <style id="current-color-scheme" type="text/css">.ColorScheme-Text { color:#ebdbb2; } .ColorScheme-Highlight { color:#458588; }</style>
  </defs>
  <path class="ColorScheme-Text" d="m11 1v2h-10v2h10v2l4-3zm0 8v2h-10v2h10v2l4-3z" fill="currentColor"/>
</svg>

<svg xmlns="http://www.w3.org/2000/svg" width="16" height="16" version="1.1">
 <defs>
  <style id="current-color-scheme" type="text/css">
   .ColorScheme-Text { color:#565656; } .ColorScheme-Highlight { color:#4285f4; }
  </style>
 </defs>
 <path style="fill:currentColor" class="ColorScheme-Text" d="M 11,1 V 3 H 1 V 5 H 11 V 7 L 15,4 Z M 11,9 V 11 H 1 V 13 H 11 V 15 L 15,12 Z"/>
</svg>
